hoohoo_web/public/Images/1pBg.svg

<svg height="1273" preserveAspectRatio="xMidYMid meet" viewBox="0 0 1728 954.749988" width="2304" xmlns="http://www.w3.org/2000/svg" xmlns:xlink="http://www.w3.org/1999/xlink" zoomAndPan="magnify"><clipPath id="a"><path d="m.226562 0h1727.546876v954.5h-1727.546876zm0 0"/></clipPath><clipPath id="b"><path d="m.226562 0h1727.546876v954.398438h-1727.546876zm0 0"/></clipPath><linearGradient id="c" gradientTransform="matrix(4.487136 0 0 3.728113 .226188 .00002)" gradientUnits="userSpaceOnUse" x1="0" x2="384.999991" y1="0" y2="0"><stop offset="0" stop-color="#0097b2"/><stop offset=".0078125" stop-color="#0097b2"/><stop offset=".015625" stop-color="#0198b1"/><stop offset=".0234375" stop-color="#0298b0"/><stop offset=".03125" stop-color="#0399af"/><stop offset=".0390625" stop-color="#0499af"/><stop offset=".046875" stop-color="#059aae"/><stop offset=".0546875" stop-color="#069aad"/><stop offset=".0625" stop-color="#079bad"/><stop offset=".0703125" stop-color="#089bac"/><stop offset=".078125" stop-color="#099cab"/><stop offset=".0859375" stop-color="#0a9cab"/><stop offset=".09375" stop-color="#0b9daa"/><stop offset=".101562" stop-color="#0c9da9"/><stop offset=".109375" stop-color="#0d9ea8"/><stop offset=".117188" stop-color="#0e9ea8"/><stop offset=".125" stop-color="#0f9fa7"/><stop offset=".132812" stop-color="#109fa6"/><stop offset=".140625" stop-color="#11a0a6"/><stop offset=".148438" stop-color="#12a1a5"/><stop offset=".15625" stop-color="#13a1a4"/><stop offset=".164062" stop-color="#14a2a3"/><stop offset=".171875" stop-color="#15a2a3"/><stop offset=".179688" stop-color="#16a3a2"/><stop offset=".1875" stop-color="#17a3a1"/><stop offset=".195312" stop-color="#18a4a1"/><stop offset=".203125" stop-color="#19a4a0"/><stop offset=".210938" stop-color="#1aa59f"/><stop offset=".21875" stop-color="#1ba59e"/><stop offset=".226562" stop-color="#1ca69e"/><stop offset=".234375" stop-color="#1da69d"/><stop offset=".242188" stop-color="#1ea79c"/><stop offset=".25" stop-color="#1fa79c"/><stop offset=".257812" stop-color="#20a89b"/><stop offset=".265625" stop-color="#21a89a"/><stop offset=".273438" stop-color="#22a999"/><stop offset=".28125" stop-color="#23a999"/><stop offset=".289062" stop-color="#24aa98"/><stop offset=".296875" stop-color="#25aa97"/><stop offset=".304688" stop-color="#26ab97"/><stop offset=".3125" stop-color="#27ab96"/><stop offset=".320312" stop-color="#28ac95"/><stop offset=".328125" stop-color="#29ac94"/><stop offset=".335938" stop-color="#2aad94"/><stop offset=".34375" stop-color="#2bad93"/><stop offset=".351562" stop-color="#2cae92"/><stop offset=".359375" stop-color="#2dae92"/><stop offset=".367188" stop-color="#2eaf91"/><stop offset=".375" stop-color="#2faf90"/><stop offset=".382812" stop-color="#30b08f"/><stop offset=".390625" stop-color="#31b08f"/><stop offset=".398438" stop-color="#32b18e"/><stop offset=".40625" stop-color="#33b28d"/><stop offset=".414062" stop-color="#34b28d"/><stop offset=".421875" stop-color="#35b38c"/><stop offset=".429688" stop-color="#36b38b"/><stop offset=".4375" stop-color="#37b48b"/><stop offset=".445313" stop-color="#38b48a"/><stop offset=".453125" stop-color="#39b589"/><stop offset=".460938" stop-color="#3ab588"/><stop offset=".46875" stop-color="#3bb688"/><stop offset=".476562" stop-color="#3cb687"/><stop offset=".484375" stop-color="#3db786"/><stop offset=".492188" stop-color="#3eb786"/><stop offset=".5" stop-color="#3eb885"/><stop offset=".507812" stop-color="#3fb884"/><stop offset=".515625" stop-color="#40b983"/><stop offset=".523438" stop-color="#41b983"/><stop offset=".53125" stop-color="#42ba82"/><stop offset=".539062" stop-color="#43ba81"/><stop offset=".546875" stop-color="#44bb81"/><stop offset=".554688" stop-color="#45bb80"/><stop offset=".5625" stop-color="#46bc7f"/><stop offset=".570312" stop-color="#47bc7e"/><stop offset=".578125" stop-color="#48bd7e"/><stop offset=".585938" stop-color="#49bd7d"/><stop offset=".59375" stop-color="#4abe7c"/><stop offset=".601562" stop-color="#4bbe7c"/><stop offset=".609375" stop-color="#4cbf7b"/><stop offset=".617188" stop-color="#4dbf7a"/><stop offset=".625" stop-color="#4ec079"/><stop offset=".632812" stop-color="#4fc079"/><stop offset=".640625" stop-color="#50c178"/><stop offset=".648438" stop-color="#51c277"/><stop offset=".65625" stop-color="#52c277"/><stop offset=".664062" stop-color="#53c376"/><stop offset=".671875" stop-color="#54c375"/><stop offset=".679688" stop-color="#55c474"/><stop offset=".6875" stop-color="#56c474"/><stop offset=".695312" stop-color="#57c573"/><stop offset=".703125" stop-color="#58c572"/><stop offset=".710938" stop-color="#59c672"/><stop offset=".71875" stop-color="#5ac671"/><stop offset=".726562" stop-color="#5bc770"/><stop offset=".734375" stop-color="#5cc76f"/><stop offset=".742188" stop-color="#5dc86f"/><stop offset=".75" stop-color="#5ec86e"/><stop offset=".757812" stop-color="#5fc96d"/><stop offset=".765625" stop-color="#60c96d"/><stop offset=".773438" stop-color="#61ca6c"/><stop offset=".78125" stop-color="#62ca6b"/><stop offset=".789062" stop-color="#63cb6b"/><stop offset=".796875" stop-color="#64cb6a"/><stop offset=".804688" stop-color="#65cc69"/><stop offset=".8125" stop-color="#66cc68"/><stop offset=".820313" stop-color="#67cd68"/><stop offset=".828125" stop-color="#68cd67"/><stop offset=".835938" stop-color="#69ce66"/><stop offset=".84375" stop-color="#6ace66"/><stop offset=".851562" stop-color="#6bcf65"/><stop offset=".859375" stop-color="#6ccf64"/><stop offset=".867188" stop-color="#6dd063"/><stop offset=".875" stop-color="#6ed063"/><stop offset=".882812" stop-color="#6fd162"/><stop offset=".890625" stop-color="#70d261"/><stop offset=".898438" stop-color="#71d261"/><stop offset=".90625" stop-color="#72d360"/><stop offset=".914063" stop-color="#73d35f"/><stop offset=".921875" stop-color="#74d45e"/><stop offset=".929688" stop-color="#75d45e"/><stop offset=".9375" stop-color="#76d55d"/><stop offset=".945312" stop-color="#77d55c"/><stop offset=".953125" stop-color="#78d65c"/><stop offset=".960938" stop-color="#79d65b"/><stop offset=".96875" stop-color="#7ad75a"/><stop offset=".976562" stop-color="#7bd759"/><stop offset=".984375" stop-color="#7cd859"/><stop offset=".992188" stop-color="#7cd858"/><stop offset="1" stop-color="#7dd957"/></linearGradient><g clip-path="url(#a)"><path d="m.226562 0h1727.546876v954.5h-1727.546876zm0 0" fill="#fff"/></g><g clip-path="url(#b)"><path d="m.226562 0v954.398438h1727.546876v-954.398438zm0 0" fill="url(#c)"/></g></svg>

<svg xmlns="http://www.w3.org/2000/svg" xmlns:xlink="http://www.w3.org/1999/xlink" width="2304" zoomAndPan="magnify" viewBox="0 0 1728 954.749988" height="1273" preserveAspectRatio="xMidYMid meet" version="1.0"><defs><clipPath id="cc0a7df7ac"><path d="M 0.226562 0 L 1727.773438 0 L 1727.773438 954.5 L 0.226562 954.5 Z M 0.226562 0 " clip-rule="nonzero"/></clipPath><clipPath id="d73a14b538"><path d="M 0.226562 0 L 1727.773438 0 L 1727.773438 954.398438 L 0.226562 954.398438 Z M 0.226562 0 " clip-rule="nonzero"/></clipPath><linearGradient x1="-0" gradientTransform="matrix(4.487136, 0, 0, 3.728113, 0.226188, 0.0000199948)" y1="0" x2="384.999991" gradientUnits="userSpaceOnUse" y2="0" id="b97e4d781b"><stop stop-opacity="1" stop-color="rgb(0%, 59.199524%, 69.799805%)" offset="0"/><stop stop-opacity="1" stop-color="rgb(0.192261%, 59.300232%, 69.659424%)" offset="0.0078125"/><stop stop-opacity="1" stop-color="rgb(0.576782%, 59.501648%, 69.380188%)" offset="0.015625"/><stop stop-opacity="1" stop-color="rgb(0.96283%, 59.70459%, 69.100952%)" offset="0.0234375"/><stop stop-opacity="1" stop-color="rgb(1.348877%, 59.907532%, 68.821716%)" offset="0.03125"/><stop stop-opacity="1" stop-color="rgb(1.734924%, 60.108948%, 68.544006%)" offset="0.0390625"/><stop stop-opacity="1" stop-color="rgb(2.120972%, 60.31189%, 68.264771%)" offset="0.046875"/><stop stop-opacity="1" stop-color="rgb(2.507019%, 60.513306%, 67.985535%)" offset="0.0546875"/><stop stop-opacity="1" stop-color="rgb(2.893066%, 60.716248%, 67.706299%)" offset="0.0625"/><stop stop-opacity="1" stop-color="rgb(3.279114%, 60.919189%, 67.428589%)" offset="0.0703125"/><stop stop-opacity="1" stop-color="rgb(3.665161%, 61.120605%, 67.149353%)" offset="0.078125"/><stop stop-opacity="1" stop-color="rgb(4.051208%, 61.323547%, 66.870117%)" offset="0.0859375"/><stop stop-opacity="1" stop-color="rgb(4.437256%, 61.524963%, 66.590881%)" offset="0.09375"/><stop stop-opacity="1" stop-color="rgb(4.823303%, 61.727905%, 66.311646%)" offset="0.101562"/><stop stop-opacity="1" stop-color="rgb(5.209351%, 61.930847%, 66.033936%)" offset="0.109375"/><stop stop-opacity="1" stop-color="rgb(5.593872%, 62.132263%, 65.7547%)" offset="0.117188"/><stop stop-opacity="1" stop-color="rgb(5.979919%, 62.335205%, 65.475464%)" offset="0.125"/><stop stop-opacity="1" stop-color="rgb(6.365967%, 62.538147%, 65.196228%)" offset="0.132812"/><stop stop-opacity="1" stop-color="rgb(6.752014%, 62.739563%, 64.918518%)" offset="0.140625"/><stop stop-opacity="1" stop-color="rgb(7.138062%, 62.942505%, 64.639282%)" offset="0.148438"/><stop stop-opacity="1" stop-color="rgb(7.524109%, 63.143921%, 64.360046%)" offset="0.15625"/><stop stop-opacity="1" stop-color="rgb(7.910156%, 63.346863%, 64.080811%)" offset="0.164062"/><stop stop-opacity="1" stop-color="rgb(8.296204%, 63.549805%, 63.801575%)" offset="0.171875"/><stop stop-opacity="1" stop-color="rgb(8.682251%, 63.751221%, 63.523865%)" offset="0.179688"/><stop stop-opacity="1" stop-color="rgb(9.068298%, 63.954163%, 63.244629%)" offset="0.1875"/><stop stop-opacity="1" stop-color="rgb(9.454346%, 64.155579%, 62.965393%)" offset="0.195312"/><stop stop-opacity="1" stop-color="rgb(9.840393%, 64.358521%, 62.686157%)" offset="0.203125"/><stop stop-opacity="1" stop-color="rgb(10.22644%, 64.561462%, 62.406921%)" offset="0.210938"/><stop stop-opacity="1" stop-color="rgb(10.612488%, 64.762878%, 62.129211%)" offset="0.21875"/><stop stop-opacity="1" stop-color="rgb(10.997009%, 64.96582%, 61.849976%)" offset="0.226562"/><stop stop-opacity="1" stop-color="rgb(11.383057%, 65.167236%, 61.57074%)" offset="0.234375"/><stop stop-opacity="1" stop-color="rgb(11.769104%, 65.370178%, 61.291504%)" offset="0.242188"/><stop stop-opacity="1" stop-color="rgb(12.155151%, 65.57312%, 61.013794%)" offset="0.25"/><stop stop-opacity="1" stop-color="rgb(12.541199%, 65.774536%, 60.734558%)" offset="0.257812"/><stop stop-opacity="1" stop-color="rgb(12.927246%, 65.977478%, 60.455322%)" offset="0.265625"/><stop stop-opacity="1" stop-color="rgb(13.313293%, 66.178894%, 60.176086%)" offset="0.273438"/><stop stop-opacity="1" stop-color="rgb(13.699341%, 66.381836%, 59.896851%)" offset="0.28125"/><stop stop-opacity="1" stop-color="rgb(14.085388%, 66.584778%, 59.619141%)" offset="0.289062"/><stop stop-opacity="1" stop-color="rgb(14.471436%, 66.786194%, 59.339905%)" offset="0.296875"/><stop stop-opacity="1" stop-color="rgb(14.857483%, 66.989136%, 59.060669%)" offset="0.304688"/><stop stop-opacity="1" stop-color="rgb(15.24353%, 67.192078%, 58.781433%)" offset="0.3125"/><stop stop-opacity="1" stop-color="rgb(15.629578%, 67.393494%, 58.502197%)" offset="0.320312"/><stop stop-opacity="1" stop-color="rgb(16.015625%, 67.596436%, 58.224487%)" offset="0.328125"/><stop stop-opacity="1" stop-color="rgb(16.400146%, 67.797852%, 57.945251%)" offset="0.335938"/><stop stop-opacity="1" stop-color="rgb(16.786194%, 68.000793%, 57.666016%)" offset="0.34375"/><stop stop-opacity="1" stop-color="rgb(17.172241%, 68.203735%, 57.38678%)" offset="0.351562"/><stop stop-opacity="1" stop-color="rgb(17.558289%, 68.405151%, 57.10907%)" offset="0.359375"/><stop stop-opacity="1" stop-color="rgb(17.944336%, 68.608093%, 56.829834%)" offset="0.367188"/><stop stop-opacity="1" stop-color="rgb(18.330383%, 68.809509%, 56.550598%)" offset="0.375"/><stop stop-opacity="1" stop-color="rgb(18.716431%, 69.012451%, 56.271362%)" offset="0.382812"/><stop stop-opacity="1" stop-color="rgb(19.102478%, 69.215393%, 55.992126%)" offset="0.390625"/><stop stop-opacity="1" stop-color="rgb(19.488525%, 69.416809%, 55.714417%)" offset="0.398438"/><stop stop-opacity="1" stop-color="rgb(19.874573%, 69.619751%, 55.435181%)" offset="0.40625"/><stop stop-opacity="1" stop-color="rgb(20.26062%, 69.821167%, 55.155945%)" offset="0.414062"/><stop stop-opacity="1" stop-color="rgb(20.646667%, 70.024109%, 54.876709%)" offset="0.421875"/><stop stop-opacity="1" stop-color="rgb(21.032715%, 70.227051%, 54.598999%)" offset="0.429688"/><stop stop-opacity="1" stop-color="rgb(21.418762%, 70.428467%, 54.319763%)" offset="0.4375"/><stop stop-opacity="1" stop-color="rgb(21.803284%, 70.631409%, 54.040527%)" offset="0.445313"/><stop stop-opacity="1" stop-color="rgb(22.189331%, 70.832825%, 53.761292%)" offset="0.453125"/><stop stop-opacity="1" stop-color="rgb(22.575378%, 71.035767%, 53.482056%)" offset="0.460938"/><stop stop-opacity="1" stop-color="rgb(22.961426%, 71.238708%, 53.204346%)" offset="0.46875"/><stop stop-opacity="1" stop-color="rgb(23.347473%, 71.440125%, 52.92511%)" offset="0.476562"/><stop stop-opacity="1" stop-color="rgb(23.733521%, 71.643066%, 52.645874%)" offset="0.484375"/><stop stop-opacity="1" stop-color="rgb(24.119568%, 71.846008%, 52.366638%)" offset="0.492188"/><stop stop-opacity="1" stop-color="rgb(24.505615%, 72.047424%, 52.087402%)" offset="0.5"/><stop stop-opacity="1" stop-color="rgb(24.891663%, 72.250366%, 51.809692%)" offset="0.507812"/><stop stop-opacity="1" stop-color="rgb(25.27771%, 72.451782%, 51.530457%)" offset="0.515625"/><stop stop-opacity="1" stop-color="rgb(25.663757%, 72.654724%, 51.251221%)" offset="0.523438"/><stop stop-opacity="1" stop-color="rgb(26.049805%, 72.857666%, 50.971985%)" offset="0.53125"/><stop stop-opacity="1" stop-color="rgb(26.435852%, 73.059082%, 50.694275%)" offset="0.539062"/><stop stop-opacity="1" stop-color="rgb(26.821899%, 73.262024%, 50.415039%)" offset="0.546875"/><stop stop-opacity="1" stop-color="rgb(27.206421%, 73.46344%, 50.135803%)" offset="0.554688"/><stop stop-opacity="1" stop-color="rgb(27.592468%, 73.666382%, 49.856567%)" offset="0.5625"/><stop stop-opacity="1" stop-color="rgb(27.978516%, 73.869324%, 49.577332%)" offset="0.570312"/><stop stop-opacity="1" stop-color="rgb(28.364563%, 74.07074%, 49.299622%)" offset="0.578125"/><stop stop-opacity="1" stop-color="rgb(28.75061%, 74.273682%, 49.020386%)" offset="0.585938"/><stop stop-opacity="1" stop-color="rgb(29.136658%, 74.475098%, 48.74115%)" offset="0.59375"/><stop stop-opacity="1" stop-color="rgb(29.522705%, 74.67804%, 48.461914%)" offset="0.601562"/><stop stop-opacity="1" stop-color="rgb(29.908752%, 74.880981%, 48.182678%)" offset="0.609375"/><stop stop-opacity="1" stop-color="rgb(30.2948%, 75.082397%, 47.904968%)" offset="0.617188"/><stop stop-opacity="1" stop-color="rgb(30.680847%, 75.285339%, 47.625732%)" offset="0.625"/><stop stop-opacity="1" stop-color="rgb(31.066895%, 75.486755%, 47.346497%)" offset="0.632812"/><stop stop-opacity="1" stop-color="rgb(31.452942%, 75.689697%, 47.067261%)" offset="0.640625"/><stop stop-opacity="1" stop-color="rgb(31.838989%, 75.892639%, 46.789551%)" offset="0.648438"/><stop stop-opacity="1" stop-color="rgb(32.225037%, 76.094055%, 46.510315%)" offset="0.65625"/><stop stop-opacity="1" stop-color="rgb(32.609558%, 76.296997%, 46.231079%)" offset="0.664062"/><stop stop-opacity="1" stop-color="rgb(32.995605%, 76.498413%, 45.951843%)" offset="0.671875"/><stop stop-opacity="1" stop-color="rgb(33.381653%, 76.701355%, 45.672607%)" offset="0.679688"/><stop stop-opacity="1" stop-color="rgb(33.7677%, 76.904297%, 45.394897%)" offset="0.6875"/><stop stop-opacity="1" stop-color="rgb(34.153748%, 77.105713%, 45.115662%)" offset="0.695312"/><stop stop-opacity="1" stop-color="rgb(34.539795%, 77.308655%, 44.836426%)" offset="0.703125"/><stop stop-opacity="1" stop-color="rgb(34.925842%, 77.511597%, 44.55719%)" offset="0.710938"/><stop stop-opacity="1" stop-color="rgb(35.31189%, 77.713013%, 44.27948%)" offset="0.71875"/><stop stop-opacity="1" stop-color="rgb(35.697937%, 77.915955%, 44.000244%)" offset="0.726562"/><stop stop-opacity="1" stop-color="rgb(36.083984%, 78.117371%, 43.721008%)" offset="0.734375"/><stop stop-opacity="1" stop-color="rgb(36.470032%, 78.320312%, 43.441772%)" offset="0.742188"/><stop stop-opacity="1" stop-color="rgb(36.856079%, 78.523254%, 43.162537%)" offset="0.75"/><stop stop-opacity="1" stop-color="rgb(37.242126%, 78.72467%, 42.884827%)" offset="0.757812"/><stop stop-opacity="1" stop-color="rgb(37.628174%, 78.927612%, 42.605591%)" offset="0.765625"/><stop stop-opacity="1" stop-color="rgb(38.012695%, 79.129028%, 42.326355%)" offset="0.773438"/><stop stop-opacity="1" stop-color="rgb(38.398743%, 79.33197%, 42.047119%)" offset="0.78125"/><stop stop-opacity="1" stop-color="rgb(38.78479%, 79.534912%, 41.767883%)" offset="0.789062"/><stop stop-opacity="1" stop-color="rgb(39.170837%, 79.736328%, 41.490173%)" offset="0.796875"/><stop stop-opacity="1" stop-color="rgb(39.556885%, 79.93927%, 41.210938%)" offset="0.804688"/><stop stop-opacity="1" stop-color="rgb(39.942932%, 80.140686%, 40.931702%)" offset="0.8125"/><stop stop-opacity="1" stop-color="rgb(40.328979%, 80.343628%, 40.652466%)" offset="0.820313"/><stop stop-opacity="1" stop-color="rgb(40.715027%, 80.54657%, 40.374756%)" offset="0.828125"/><stop stop-opacity="1" stop-color="rgb(41.101074%, 80.747986%, 40.09552%)" offset="0.835938"/><stop stop-opacity="1" stop-color="rgb(41.487122%, 80.950928%, 39.816284%)" offset="0.84375"/><stop stop-opacity="1" stop-color="rgb(41.873169%, 81.152344%, 39.537048%)" offset="0.851562"/><stop stop-opacity="1" stop-color="rgb(42.259216%, 81.355286%, 39.257812%)" offset="0.859375"/><stop stop-opacity="1" stop-color="rgb(42.645264%, 81.558228%, 38.980103%)" offset="0.867188"/><stop stop-opacity="1" stop-color="rgb(43.031311%, 81.759644%, 38.700867%)" offset="0.875"/><stop stop-opacity="1" stop-color="rgb(43.415833%, 81.962585%, 38.421631%)" offset="0.882812"/><stop stop-opacity="1" stop-color="rgb(43.80188%, 82.165527%, 38.142395%)" offset="0.890625"/><stop stop-opacity="1" stop-color="rgb(44.187927%, 82.366943%, 37.863159%)" offset="0.898438"/><stop stop-opacity="1" stop-color="rgb(44.573975%, 82.569885%, 37.585449%)" offset="0.90625"/><stop stop-opacity="1" stop-color="rgb(44.960022%, 82.771301%, 37.306213%)" offset="0.914063"/><stop stop-opacity="1" stop-color="rgb(45.346069%, 82.974243%, 37.026978%)" offset="0.921875"/><stop stop-opacity="1" stop-color="rgb(45.732117%, 83.177185%, 36.747742%)" offset="0.929688"/><stop stop-opacity="1" stop-color="rgb(46.118164%, 83.378601%, 36.470032%)" offset="0.9375"/><stop stop-opacity="1" stop-color="rgb(46.504211%, 83.581543%, 36.190796%)" offset="0.945312"/><stop stop-opacity="1" stop-color="rgb(46.890259%, 83.782959%, 35.91156%)" offset="0.953125"/><stop stop-opacity="1" stop-color="rgb(47.276306%, 83.985901%, 35.632324%)" offset="0.960938"/><stop stop-opacity="1" stop-color="rgb(47.662354%, 84.188843%, 35.353088%)" offset="0.96875"/><stop stop-opacity="1" stop-color="rgb(48.048401%, 84.390259%, 35.075378%)" offset="0.976562"/><stop stop-opacity="1" stop-color="rgb(48.432922%, 84.593201%, 34.796143%)" offset="0.984375"/><stop stop-opacity="1" stop-color="rgb(48.81897%, 84.794617%, 34.516907%)" offset="0.992188"/><stop stop-opacity="1" stop-color="rgb(49.205017%, 84.997559%, 34.237671%)" offset="1"/></linearGradient></defs><g clip-path="url(#cc0a7df7ac)"><path fill="#ffffff" d="M 0.226562 0 L 1727.773438 0 L 1727.773438 954.5 L 0.226562 954.5 Z M 0.226562 0 " fill-opacity="1" fill-rule="nonzero"/></g><g clip-path="url(#d73a14b538)"><path fill="url(#b97e4d781b)" d="M 0.226562 0 L 0.226562 954.398438 L 1727.773438 954.398438 L 1727.773438 0 Z M 0.226562 0 " fill-rule="nonzero"/></g></svg>
